!!!COM: Gibson, Timothy
!!!CDT: 1903-1978
!!!OTL: National Anthem, The Bahamas
!!!ENC: Davis, Matthew J.
!!Vocal Line Only
**kern
*clefG2
*k[f#c#]
*D:
*M4/4
=1-
1r
=2
1r
=3
2f#
4.a
8a
=4
2.dd
8.cc#
18b
=5
4a
4dd
4d
(8a
8g)
=6
4.f#
8e
4e
4r
=7
2a
4.a
8g
=8
4f#
4g#
4a
4b
=9
8cc#
4.a
8b
4.g#
=10
2.a
4r
=11
2f#
4.a
8a
=12
2.dd
8.cc#
16b
=13
4a
4dd
4d
(8a
8g)
=14
2f#
2e
=15
2e
4.a
8b
=16
2.cc#
4e
=17
4cc#
(8b
8a)
4.b
8a
=18
2a
4r
==19
8.a
16g
=20
4f#
4f#
4r
8.b
16a
=21
(8.g
16a)
2b
8.b
16b
=22
4a#
4a#
4b
4cc#
=23
2.dd
8.g#
16f#
=24
4e
4e
4r
8.f#
16g#
=25
(8.a
16b)
2cc#
8.cc#
16cc#
=26
4dd
4f#
4.g#
8e
=27
2.a
4r
=28
2f#
4.a
8a
=29
2.dd
8.cc#
16b
=30
4a
4dd
4d
(8a
8g)
=31
4.f#
8e
4e
8.d
16e
=32
4f#
4a
4g
8b
8b
=33
4a 4r
4dd 4r
4dd 4gg
(8b (8dd
8g) 8ee)
=34
4.f# 4.ff#
8a 8dd
8f# 8ff#
4.e 4.ee
=35
2.d 2.dd
4r
==|!
*-
